Assets/Icons/expression/questionmark-circle.svg

<svg enable-background="new 0 0 60 60" viewBox="0 0 60 60" xmlns="http://www.w3.org/2000/svg"><path d="m30 1.5c-15.71 0-28.5 12.79-28.5 28.5s12.79 28.5 28.5 28.5 28.5-12.79 28.5-28.5-12.79-28.5-28.5-28.5zm0 54c-14.06 0-25.5-11.44-25.5-25.5s11.44-25.5 25.5-25.5 25.5 11.44 25.5 25.5-11.44 25.5-25.5 25.5z"/><path d="m29.53 37.71c-.84 0-1.52.26-2.03.79-.52.53-.77 1.21-.77 2.05 0 .82.26 1.48.79 2s1.2.77 2.02.77c.84 0 1.52-.26 2.03-.77s.77-1.18.77-2c0-.86-.26-1.55-.77-2.07-.52-.51-1.2-.77-2.04-.77z"/><path d="m30.07 17.73c-1.85 0-3.41.47-4.7 1.4-1.28.94-2.14 2.23-2.57 3.89-.05.17-.04.32.02.45s.17.23.34.31l2.45.97c.22.07.39.08.52.02s.23-.2.31-.41c.26-.84.67-1.48 1.21-1.91s1.21-.65 2-.65c.82 0 1.45.25 1.91.74s.68 1.18.68 2.07c0 .96-.34 1.81-1.03 2.56-.68.74-1.84 1.44-3.47 2.09-.17.05-.29.13-.38.25-.08.12-.11.28-.09.47l.29 4.72c.02.19.09.34.2.43s.25.14.41.14h2.95c.19 0 .34-.05.45-.14.11-.1.17-.24.2-.43l.22-3.82c1.82-.86 3.12-1.85 3.89-2.95s1.15-2.41 1.15-3.92c0-1.92-.62-3.44-1.87-4.57-1.26-1.15-2.95-1.71-5.09-1.71z"/></svg>

<?xml version="1.0" encoding="utf-8"?>
<!-- Generator: Adobe Illustrator 21.1.0, SVG Export Plug-In . SVG Version: 6.00 Build 0)  -->
<svg version="1.1" id="eps" xmlns="http://www.w3.org/2000/svg" xmlns:xlink="http://www.w3.org/1999/xlink" x="0px" y="0px"
	 viewBox="0 0 60 60" style="enable-background:new 0 0 60 60;" xml:space="preserve">
<g>
	<path d="M30,1.5C14.29,1.5,1.5,14.29,1.5,30S14.29,58.5,30,58.5S58.5,45.71,58.5,30S45.71,1.5,30,1.5z M30,55.5
		C15.94,55.5,4.5,44.06,4.5,30S15.94,4.5,30,4.5S55.5,15.94,55.5,30S44.06,55.5,30,55.5z"/>
	<path d="M29.53,37.71c-0.84,0-1.52,0.26-2.03,0.79c-0.52,0.53-0.77,1.21-0.77,2.05c0,0.82,0.26,1.48,0.79,2s1.2,0.77,2.02,0.77
		c0.84,0,1.52-0.26,2.03-0.77s0.77-1.18,0.77-2c0-0.86-0.26-1.55-0.77-2.07C31.05,37.97,30.37,37.71,29.53,37.71z"/>
	<path d="M30.07,17.73c-1.85,0-3.41,0.47-4.7,1.4c-1.28,0.94-2.14,2.23-2.57,3.89c-0.05,0.17-0.04,0.32,0.02,0.45
		c0.06,0.13,0.17,0.23,0.34,0.31l2.45,0.97c0.22,0.07,0.39,0.08,0.52,0.02c0.13-0.06,0.23-0.2,0.31-0.41
		c0.26-0.84,0.67-1.48,1.21-1.91s1.21-0.65,2-0.65c0.82,0,1.45,0.25,1.91,0.74s0.68,1.18,0.68,2.07c0,0.96-0.34,1.81-1.03,2.56
		c-0.68,0.74-1.84,1.44-3.47,2.09c-0.17,0.05-0.29,0.13-0.38,0.25c-0.08,0.12-0.11,0.28-0.09,0.47l0.29,4.72
		c0.02,0.19,0.09,0.34,0.2,0.43s0.25,0.14,0.41,0.14h2.95c0.19,0,0.34-0.05,0.45-0.14c0.11-0.1,0.17-0.24,0.2-0.43l0.22-3.82
		c1.82-0.86,3.12-1.85,3.89-2.95s1.15-2.41,1.15-3.92c0-1.92-0.62-3.44-1.87-4.57C33.9,18.29,32.21,17.73,30.07,17.73z"/>
</g>
</svg>
